X: 2081
T: Çanakkale İçinde
C: İhsan Ozanoğlu
O: Turkey
F: http://compmusic.upf.edu/node/140
N: neva--turku--sofyan--canakkale_icinde--
N: makam= neva
N: form= turku
N: usul= sofyan = 4/4
M: 4/4
L: 1/16
K: C _2/4B ^3/4f  
Q: 1/4=93
%%MIDI tuningsystem comma53
d2e6 e4 _e3d  | d4 _e2d2 c2B2 c4  | B2c2 d4 d_ede c2B2  | \
w:  ARANAĞME  |   |   | 
A8 B2c2 d2e2  | 
w:   | 
c2{d}B3GA2 B2A6  | A12 z4  | d2e6 e4 _e3d  | \
w:   |   |  ARANAĞME  | 
d4 _e2d2 c2B2 c4  | B2c2 d4 d_ede c2B2  | 
w:   |   | 
A8 B2c2 d2e2  | c2{d}B3GA2 B2A6  | A12 z4  | \
w:   |   |   | 
z4 G2A2 A2A6  | g3^f e3d d6c2  | 
w:  Ça nak ka le   |  i *  çin *  de   | 
d4 e4 eg^fg e3d  | d12 z4  | d6e2 e4 _e3d  | \
w:  vur du lar  *  *  *  be  |  ni    |  Öl me den  me  | 
d4 _e2d2 c2B2 c4  | 
w:  za *  *  ra   | 
B2c2 d4 d_ede c2B2  | A8 B2c2 d2e2  | \
w:  koy *  du lar  *  *  *  be  |  ni   Of   | 
c2{d}B3GA2 B2A6  | A12 z4  | 
w:  genç *  *  *  li ğim_ ey  |  vah    | 
d6e2 e4 _e3d  | d4 _e2d2 c2B2 c4  | B2c2 d4 d_ede c2B2  | \
w:  Öl me den  me  |  za *  *  ra   |  koy *  du lar  *  *  *  be  | 
A8 B2c2 d2e2  | 
w:  ni   Of   | 
c2{d}B3GA2 B2A6  | A12 z4  | d2e6 e4 _e3d  | \
w:  genç *  *  *  li ğim_ ey  |  vah    |  ARANAĞME  | 
d4 _e2d2 c2B2 c4  | B2c2 d4 d_ede c2B2  | 
w:   |   | 
A8 B2c2 d2e2  | c2{d}B3GA2 B2A6  | A12 z4  | \
w:   |   |   | 
d2e6 e4 _e3d  | d4 _e2d2 c2B2 c4  | 
w:  ARANAĞME  |   | 
B2c2 d4 d_ede c2B2  | A8 B2c2 d2e2  | \
w:   |   | 
c2{d}B3GA2 B2A6  | A12 z4  | 
w:   |   | 
z4 G2A2 A2A6  | g3^f e3d d6c2  | d4 e4 eg^fg e3d  | \
w:  Ça nak ka le   |  i *  çin *  de   |  Ay na lı  *  *  *  çar  | 
d12 z4  | 
w:  şı    | 
z4 d2e2 e4 _e3d  | d4 _e2d2 c2B2 c4  | \
w:  A na  ben  gi  |  di *  *  yom   | 
B2c2 d4 d_ede c2B2  | 
w:  düş *  ma na  *  *  *  kar  | 
A8 B2c2 d2e2  | c2{d}B3GA2 B2A6  | A12 z4  | \
w:  şı   Of   |  genç *  *  *  li ğim_ ey  |  vah    | 
z4 d2e2 e4 _e3d  | d4 _e2d2 c2B2 c4  | 
w:  A na  ben  gi  |  di *  *  yom   | 
B2c2 d4 d_ede c2B2  | A8 B2c2 d2e2  | \
w:  düş *  ma na  *  *  *  kar  |  şı   Of   | 
c2{d}B3GA2 B2A6  | A12 z4  | 
w:  genç *  *  *  li ğim_ ey  |  vah    | 
|


